src/icons/ratio.svg

<svg height="32" viewBox="0 0 32 32" width="32" xmlns="http://www.w3.org/2000/svg"><path d="m16 2.0000002c-7.7559998 0-13.9999998 6.244-13.9999998 13.9999998 0 7.756 6.244 14 13.9999998 14 7.756 0 14-6.244 14-14 0-7.7559998-6.244-13.9999998-14-13.9999998zm-5.46875 5.25a3.28125 3.28125 0 0 1 3.28125 3.2812498 3.28125 3.28125 0 0 1 -3.28125 3.28125 3.28125 3.28125 0 0 1 -3.2812499-3.28125 3.28125 3.28125 0 0 1 3.2812499-3.2812498zm12.677247 0 1.541503 1.5415033-15.9584958 15.9584965-1.5415041-1.541503zm-1.739747 10.9374998a3.28125 3.28125 0 0 1 3.28125 3.28125 3.28125 3.28125 0 0 1 -3.28125 3.28125 3.28125 3.28125 0 0 1 -3.28125-3.28125 3.28125 3.28125 0 0 1 3.28125-3.28125z" fill="#f25022" stroke-width="1.75"/></svg>

<?xml version="1.0" encoding="UTF-8" standalone="no"?>
<svg
   xmlns:dc="http://purl.org/dc/elements/1.1/"
   xmlns:cc="http://creativecommons.org/ns#"
   xmlns:rdf="http://www.w3.org/1999/02/22-rdf-syntax-ns#"
   xmlns:svg="http://www.w3.org/2000/svg"
   xmlns="http://www.w3.org/2000/svg"
   xmlns:sodipodi="http://sodipodi.sourceforge.net/DTD/sodipodi-0.dtd"
   xmlns:inkscape="http://www.inkscape.org/namespaces/inkscape"
   viewBox="0 0 32 32"
   version="1.1"
   id="svg4"
   sodipodi:docname="ratio.svg"
   width="32"
   height="32"
   inkscape:version="0.92.4 5da689c313, 2019-01-14">
  <metadata
     id="metadata10">
    <rdf:RDF>
      <cc:Work
         rdf:about="">
        <dc:format>image/svg+xml</dc:format>
        <dc:type
           rdf:resource="http://purl.org/dc/dcmitype/StillImage" />
        <dc:title />
      </cc:Work>
    </rdf:RDF>
  </metadata>
  <defs
     id="defs8" />
  <sodipodi:namedview
     pagecolor="#ffffff"
     bordercolor="#666666"
     borderopacity="1"
     objecttolerance="10"
     gridtolerance="10"
     guidetolerance="10"
     inkscape:pageopacity="0"
     inkscape:pageshadow="2"
     inkscape:window-width="1366"
     inkscape:window-height="703"
     id="namedview6"
     showgrid="false"
     inkscape:zoom="10.727273"
     inkscape:cx="-24.563558"
     inkscape:cy="11"
     inkscape:window-x="0"
     inkscape:window-y="0"
     inkscape:window-maximized="1"
     inkscape:current-layer="svg4" />
  <path
     d="m 16,2.0000002 c -7.7559998,0 -13.9999998,6.244 -13.9999998,13.9999998 0,7.756 6.244,14 13.9999998,14 7.756,0 14,-6.244 14,-14 C 30,8.2440002 23.756,2.0000002 16,2.0000002 Z m -5.46875,5.25 A 3.28125,3.28125 0 0 1 13.8125,10.53125 3.28125,3.28125 0 0 1 10.53125,13.8125 3.28125,3.28125 0 0 1 7.2500001,10.53125 3.28125,3.28125 0 0 1 10.53125,7.2500002 Z m 12.677247,0 L 24.75,8.7915035 8.7915042,24.75 7.2500001,23.208497 Z M 21.46875,18.1875 A 3.28125,3.28125 0 0 1 24.75,21.46875 3.28125,3.28125 0 0 1 21.46875,24.75 3.28125,3.28125 0 0 1 18.1875,21.46875 3.28125,3.28125 0 0 1 21.46875,18.1875 Z"
     id="path2"
     inkscape:connector-curvature="0"
     style="fill:#f25022;stroke-width:1.75;fill-opacity:1" />
</svg>
